X:91
T:Huntingtower
C:arr. Carlo Minasi
%Repeat signs added to resolve a notation error
%in the first bar
M:2/4
L:1/8
B:Chappell's One Hundred Scotch Melodies
B:Arranged for the Concertina by Carlo Minasi
Q:"Andantino  "1/4=120
Z:Peter Dunk 2012
U:j=!crescendo(!
U:J=!crescendo)!
K:F
!p!F>F|:F2G2|A2 A<F|jF>FA[cA]J| ([fA]>e) ([dB]<[cA])|
L[dB]>[dB] [fd]>[dB]|([cA]>A) (A/G/F)|\
[BFD]>B [AFC]>c|(G>A) ([GC]<[FA,]):|

